X: 1
T: Roy of Olicana
C:\251 George Meikle
B: George Meikle "Originally Mine" p.18
R: strathspey
Z: 2010 John Chambers <jc:trillian.mit.edu>
M: 4/4
L: 1/8
K: F
A>G |:\
"F"F>G A>F "E/C7"E<G C2 | "F"F>C A>C "A/F7"c2 c2 |\
"Bb"d>c (3Bcd "A/F"c>A F>A | "B/G7"(3GAG (3FED "C7"C2 (3CDE |
"F"F>G A>F "E/C7"E<G C2 | "F"F>C A>C "A/F7"c2 c2 |\
"Bb"d>c (3Bcd "A/F"c>A F>A |1 "Gm"(3GAB "C7"(3cAG "F"F2 A>G :|2 "Gm"(3GAB "C7"(3cAG "F"F2 "C7"F>E ||
"Dm"D>E F>G "A/Dm"A<F D>A | "Gm"B>A (3GAB "A7"A2 A>F |\
"Dm"D>E F>G "A/Dm"A<F D>A | "A/Dm"(3GAG (3FED "C#/A7"^C2 A,>C |
"Dm"D>E F>G "A/Dm"A<F D>A | "Gm"B>A (3GAB "A7"A2 A>F |\
"Dm"D>E F>G "A/Dm"A<F D>A | "A7"(3GAG (3^CDE "Dm"D2 "C7"=C2 |
"F"F>G A>F "E/C7"E<G C2 | "F"F>C A>C "A/F7"c2 c2 |\
"Bb"d>c (3Bcd "A/F"c>A F>A | "B/G7"(3GAG (3FED "C7"C2 (3CDE |
"F"F>G A>F "E/C7"E<G C2 | "F"F>C A>C "A/F7"c2 c2 |\
"Bb"d>c (3Bcd "A/F"c>A F>A | "Gm"(3GAB "C7"(3cAG "F"A<F F2 |]
%%begintext align
Composed for the dance "Roy of Olicana" which was devised by Leeds Branch and first demonstrated to Roy Goldring on the evening he was presented with his RSCDS Scroll of Honour by his local branch. Roy lives in Ilkley, the Roman name for which is Olicana.
%%endtext

%%sep 1 1 500
%%sep 1 1 500

